;FLAVOR:Marlin
;TIME:6323
;Filament used: 3.61952m
;Layer height: 0.2
;MINX:83.285
;MINY:81.77
;MINZ:0.3
;MAXX:136.769
;MAXY:138.179
;MAXZ:22.3
;Generated with Cura_SteamEngine 4.12.1
M140 S60
M105
M190 S60
M104 S200
M105
M109 S200
M82 ;absolute extrusion mode
G28 ;Home
G1 Z15.0 F2000 ;Move the platform
G92 E0
G92 E0
G1 F1500 E-6.5
;LAYER_COUNT:111
;LAYER:0
M107
M204 S1000
G0 F7500 X84.542 Y83.495 Z0.3
;TYPE:SKIRT
G1 F1500 E0
G1 X84.774 Y83.26 E0.01648
G1 X85.075 Y82.983 E0.03688
G1 X85.281 Y82.808 E0.05037
G1 X85.343 Y82.759 E0.05431
G1 X85.787 Y82.458 E0.08107
G1 X86.27 Y82.228 E0.10776
G1 X86.576 Y82.109 E0.12414
G1 X86.994 Y81.968 E0.14615
G1 X87.281 Y81.886 E0.16104
G1 X87.807 Y81.782 E0.18779
G1 X88.558 Y81.77 E0.22526
G1 X89.293 Y81.835 E0.26208
G1 X92.024 Y82.037 E0.3987
G1 X94.719 Y82.16 E0.53329
G1 X97.927 Y82.21 E0.69336
G1 X103.123 Y82.205 E0.95259
G1 X103.996 Y82.214 E0.99615
G1 X106.97 Y82.267 E1.14454
G1 X108.772 Y82.325 E1.23449
G1 X111.483 Y82.373 E1.36977
G1 X114.249 Y82.344 E1.50777
G1 X116.955 Y82.24 E1.64287
G1 X120.135 Y82.019 E1.80191
G1 X120.663 Y81.974 E1.82834
G1 X120.888 Y81.962 E1.83959
G1 X122.151 Y81.934 E1.90261
G1 X123.516 Y81.935 E1.97071
G1 X125.407 Y81.926 E2.06506
G1 X127.07 Y81.905 E2.14803
G1 X128.519 Y81.898 E2.22032
G1 X130.58 Y81.904 E2.32315
G1 X131.275 Y81.917 E2.35783
G1 X131.656 Y81.944 E2.37688
G1 X131.879 Y81.972 E2.38809
G1 X132.364 Y82.067 E2.41275
G1 X132.662 Y82.147 E2.42814
G1 X133.2 Y82.338 E2.45663
G1 X133.553 Y82.496 E2.47592
G1 X133.853 Y82.646 E2.49265
G1 X134.184 Y82.829 E2.51152
G1 X134.632 Y83.124 E2.53829
G1 X134.999 Y83.448 E2.56271
G1 X135.071 Y83.521 E2.56783
G1 X135.498 Y84.044 E2.60151
G1 X135.677 Y84.311 E2.61755
G1 X135.853 Y84.591 E2.63405
G1 X136.056 Y84.956 E2.65488
G1 X136.352 Y85.685 E2.69414
G1 X136.414 Y85.904 E2.70549
G1 X136.48 Y86.179 E2.7196
G1 X136.534 Y86.449 E2.73334
G1 X136.583 Y86.77 E2.74954
G1 X136.622 Y87.133 E2.76775
G1 X136.642 Y87.435 E2.78285
G1 X136.645 Y87.625 E2.79233
G1 X136.641 Y88.345 E2.82826
G1 X136.653 Y91.043 E2.96286
G1 X136.652 Y91.651 E2.99319
G1 X136.633 Y94.884 E3.15449
G1 X136.602 Y96.526 E3.23643
G1 X136.551 Y98.11 E3.31549
G1 X136.54 Y100.849 E3.45214
G1 X136.569 Y102.477 E3.53338
G1 X136.563 Y103.133 E3.56611
G1 X136.56 Y103.249 E3.5719
G1 X136.51 Y104.449 E3.63182
G1 X136.513 Y104.579 E3.6383
G1 X136.442 Y106.561 E3.73725
G1 X136.421 Y109.29 E3.8734
G1 X136.478 Y111.984 E4.00784
G1 X136.613 Y114.74 E4.1455
G1 X136.693 Y115.766 E4.19684
G1 X136.769 Y116.922 E4.25464
G1 X136.767 Y117.428 E4.27989
G1 X136.662 Y118.825 E4.34978
G1 X136.497 Y121.538 E4.48538
G1 X136.408 Y124.267 E4.6216
G1 X136.396 Y127 E4.75795
G1 X136.457 Y129.028 E4.85918
G1 X136.451 Y129.171 E4.86632
G1 X136.484 Y130.437 E4.9295
G1 X136.488 Y130.89 E4.9521
G1 X136.493 Y132.076 E5.01127
G1 X136.482 Y132.775 E5.04615
G1 X136.454 Y133.429 E5.07881
G1 X136.437 Y133.716 E5.09315
G1 X136.409 Y134.083 E5.11151
G1 X136.328 Y134.613 E5.13826
G1 X136.17 Y135.125 E5.165
G1 X135.937 Y135.609 E5.19179
G1 X135.659 Y136.022 E5.21663
G1 X135.465 Y136.271 E5.23238
G1 X135.097 Y136.675 E5.25964
G1 X134.917 Y136.845 E5.272
G1 X134.605 Y137.108 E5.29235
G1 X134.525 Y137.168 E5.29734
G1 X133.978 Y137.507 E5.32945
G1 X133.529 Y137.732 E5.35451
G1 X133.29 Y137.841 E5.36761
G1 X133.118 Y137.912 E5.37689
G1 X132.608 Y138.079 E5.40367
G1 X132.079 Y138.168 E5.43043
G1 X131.562 Y138.179 E5.45623
G1 X130.976 Y138.149 E5.4855
G1 X129.313 Y138.041 E5.56865
G1 X126.315 Y137.936 E5.71831
G1 X126.167 Y137.928 E5.7257
G1 X125.887 Y137.902 E5.73973
G1 X125.149 Y137.803 E5.77688
G1 X123.695 Y137.591 E5.85019
G1 X121.005 Y137.275 E5.98532
G1 X118.25 Y137.031 E6.1233
G1 X115.563 Y136.869 E6.2576
G1 X112.832 Y136.782 E6.39392
G1 X110.1 Y136.772 E6.53022
G1 X107.373 Y136.839 E6.66631
G1 X104.64 Y136.984 E6.80285
G1 X101.932 Y137.204 E6.9384
G1 X99.249 Y137.5 E7.07307
G1 X97.807 Y137.706 E7.14574
G1 X97.65 Y137.717 E7.15359
G1 X96.452 Y137.881 E7.21392
G1 X96.03 Y137.913 E7.23503
G1 X94.967 Y137.933 E7.28808
G1 X91.341 Y137.939 E7.46898
G1 X88.983 Y137.991 E7.58665
G1 X87.943 Y138.003 E7.63854
G1 X87.407 Y137.969 E7.66533
G1 X86.883 Y137.856 E7.69207
G1 X86.334 Y137.644 E7.72144
G1 X86.059 Y137.511 E7.73668
G1 X85.595 Y137.242 E7.76343
G1 X85.354 Y137.062 E7.77844
G1 X85.15 Y136.896 E7.79156
G1 X84.888 Y136.661 E7.80912
G1 X84.777 Y136.551 E7.81692
G1 X84.294 Y135.958 E7.85507
G1 X84.057 Y135.594 E7.87674
G1 X83.887 Y135.305 E7.89347
G1 X83.774 Y135.09 E7.90559
G1 X83.561 Y134.598 E7.93234
G1 X83.423 Y134.08 E7.95908
G1 X83.363 Y133.547 E7.98584
G1 X83.367 Y133.214 E8.00246
G1 X83.385 Y132.898 E8.01825
G1 X83.537 Y130.703 E8.12802
G1 X83.651 Y127.97 E8.26449
G1 X83.686 Y125.231 E8.40115
G1 X83.644 Y122.489 E8.53796
G1 X83.554 Y120.283 E8.64811
G1 X83.437 Y118.008 E8.76176
G1 X83.384 Y117.191 E8.80261
G1 X83.362 Y116.726 E8.82583
G1 X83.365 Y116.325 E8.84584
G1 X83.385 Y116.014 E8.86139
G1 X83.525 Y113.294 E8.99727
G1 X83.589 Y110.563 E9.13356
G1 X83.574 Y107.832 E9.26981
G1 X83.484 Y105.104 E9.40598
G1 X83.418 Y104.05 E9.45867
G1 X83.376 Y103.194 E9.50143
G1 X83.354 Y102.008 E9.56061
G1 X83.354 Y101.107 E9.60556
G1 X83.357 Y100.914 E9.61519
G1 X83.364 Y98.424 E9.73941
G1 X83.359 Y97.757 E9.77269
G1 X83.357 Y96.6 E9.83042
G1 X83.378 Y95.318 E9.89438
G1 X83.428 Y93.665 E9.97689
G1 X83.432 Y90.936 E10.11304
G1 X83.359 Y88.192 E10.24999
G1 X83.285 Y86.681 E10.32546
G1 X83.299 Y86.145 E10.35221
G1 X83.392 Y85.617 E10.37896
G1 X83.563 Y85.109 E10.4057
G1 X83.7 Y84.819 E10.4217
G1 X83.956 Y84.336 E10.44897
G1 X84.138 Y84.031 E10.46669
G1 X84.213 Y83.918 E10.47346
G1 X84.542 Y83.495 E10.5002
G0 F7500 X84.858 Y83.742
G1 F1500 X85.045 Y83.554 E10.51343
G1 X85.346 Y83.277 E10.53383
G1 X85.591 Y83.072 E10.54977
G1 X86.011 Y82.791 E10.57498
G1 X86.415 Y82.601 E10.59726
G1 X86.721 Y82.482 E10.61364
G1 X87.116 Y82.349 E10.63443
G1 X87.388 Y82.272 E10.64853
G1 X87.884 Y82.176 E10.67374
G1 X88.522 Y82.168 E10.70557
G1 X89.267 Y82.234 E10.74288
G1 X91.977 Y82.435 E10.87846
G1 X94.728 Y82.561 E11.01585
G1 X97.92 Y82.61 E11.17512
G1 X103.119 Y82.605 E11.4345
G1 X103.989 Y82.614 E11.4779
G1 X106.958 Y82.667 E11.62605
G1 X108.754 Y82.725 E11.7157
G1 X111.48 Y82.773 E11.85172
G1 X114.234 Y82.745 E11.98913
G1 X116.996 Y82.638 E12.12703
G1 X120.199 Y82.416 E12.28721
G1 X120.697 Y82.373 E12.31215
G1 X120.897 Y82.362 E12.32214
G1 X122.151 Y82.334 E12.38472
G1 X123.517 Y82.335 E12.45287
G1 X125.412 Y82.326 E12.54741
G1 X127.072 Y82.305 E12.63024
G1 X128.518 Y82.298 E12.70238
G1 X130.573 Y82.304 E12.8049
G1 X131.268 Y82.317 E12.83958
G1 X131.607 Y82.341 E12.85654
G1 X131.83 Y82.369 E12.86775
G1 X132.261 Y82.453 E12.88966
G1 X132.559 Y82.533 E12.90505
G1 X133.036 Y82.703 E12.93031
G1 X133.389 Y82.861 E12.94961
G1 X133.667 Y83 E12.96512
G1 X133.99 Y83.179 E12.98354
G1 X134.411 Y83.458 E13.00874
G1 X134.714 Y83.729 E13.02902
G1 X134.786 Y83.802 E13.03413
G1 X135.166 Y84.267 E13.06409
G1 X135.345 Y84.534 E13.08013
G1 X135.512 Y84.801 E13.09584
G1 X135.704 Y85.146 E13.11554
G1 X135.967 Y85.794 E13.15043
G1 X136.029 Y86.013 E13.16179
G1 X136.088 Y86.257 E13.17431
G1 X136.142 Y86.527 E13.18805
G1 X136.186 Y86.813 E13.20248
G1 X136.225 Y87.176 E13.2207
G1 X136.242 Y87.444 E13.2341
G1 X136.245 Y87.623 E13.24303
G1 X136.241 Y88.343 E13.27895
G1 X136.253 Y91.042 E13.4136
G1 X136.252 Y91.649 E13.44389
G1 X136.233 Y94.876 E13.60489
G1 X136.202 Y96.513 E13.68657
G1 X136.151 Y98.095 E13.76554
G1 X136.14 Y100.891 E13.90503
G1 X136.169 Y102.473 E13.98397
G1 X136.163 Y103.129 E14.0167
G1 X136.108 Y104.48 E14.08416
G1 X136.113 Y104.564 E14.08836
G1 X136.042 Y106.543 E14.18715
G1 X136.021 Y109.295 E14.32445
G1 X136.078 Y112.013 E14.46009
G1 X136.213 Y114.755 E14.59705
G1 X136.294 Y115.792 E14.64894
G1 X136.37 Y116.948 E14.70674
G1 X136.368 Y117.398 E14.72919
G1 X136.263 Y118.795 E14.79909
G1 X136.096 Y121.536 E14.93609
G1 X136.008 Y124.252 E15.07166
G1 X135.996 Y126.981 E15.20781
G1 X136.058 Y129.04 E15.31058
G1 X136.051 Y129.187 E15.31793
G1 X136.084 Y130.441 E15.38051
G1 X136.088 Y130.892 E15.40301
G1 X136.093 Y132.071 E15.46183
G1 X136.085 Y132.667 E15.49157
G1 X136.055 Y133.405 E15.52842
G1 X136.038 Y133.685 E15.54241
G1 X136.01 Y134.052 E15.56078
G1 X135.932 Y134.552 E15.58602
G1 X135.776 Y135.033 E15.61125
G1 X135.546 Y135.483 E15.63646
G1 X135.343 Y135.776 E15.65425
G1 X135.149 Y136.025 E15.67
G1 X134.822 Y136.384 E15.69422
G1 X134.642 Y136.554 E15.70657
G1 X134.365 Y136.788 E15.72466
G1 X134.285 Y136.848 E15.72965
G1 X133.799 Y137.149 E15.75817
G1 X133.35 Y137.374 E15.78323
G1 X132.965 Y137.542 E15.80419
G1 X132.484 Y137.697 E15.8294
G1 X131.984 Y137.775 E15.85465
G1 X131.582 Y137.78 E15.8747
G1 X131.002 Y137.75 E15.90368
G1 X129.32 Y137.64 E15.98777
G1 X126.336 Y137.536 E16.13674
G1 X125.94 Y137.505 E16.15655
G1 X125.206 Y137.408 E16.19349
G1 X123.723 Y137.192 E16.26826
G1 X121.019 Y136.874 E16.40409
G1 X118.308 Y136.634 E16.53987
G1 X115.564 Y136.468 E16.67702
G1 X112.846 Y136.382 E16.81269
G1 X110.092 Y136.372 E16.95009
G1 X107.343 Y136.439 E17.08728
G1 X104.623 Y136.584 E17.22317
G1 X101.923 Y136.803 E17.35832
G1 X99.179 Y137.106 E17.49605
G1 X97.75 Y137.31 E17.56807
G1 X97.591 Y137.32 E17.57601
G1 X96.397 Y137.484 E17.63614
G1 X96.023 Y137.513 E17.65486
G1 X94.966 Y137.533 E17.7076
G1 X91.331 Y137.539 E17.88895
G1 X88.978 Y137.591 E18.00637
G1 X87.938 Y137.603 E18.05826
G1 X87.434 Y137.569 E18.08346
G1 X86.941 Y137.456 E18.1087
G1 X86.508 Y137.284 E18.13194
G1 X86.233 Y137.151 E18.14718
G1 X85.606 Y136.752 E18.18426
G1 X85.402 Y136.586 E18.19738
G1 X85.17 Y136.377 E18.21296
G1 X85.059 Y136.267 E18.22075
G1 X84.629 Y135.74 E18.25469
G1 X84.392 Y135.376 E18.27636
G1 X84.241 Y135.119 E18.29123
G1 X84.128 Y134.904 E18.30335
G1 X83.929 Y134.439 E18.32858
G1 X83.806 Y133.949 E18.35379
G1 X83.766 Y133.236 E18.38941
G1 X83.784 Y132.925 E18.40496
G1 X83.938 Y130.709 E18.51578
G1 X84.05 Y127.992 E18.65145
G1 X84.086 Y125.231 E18.7892
G1 X84.044 Y122.453 E18.92782
G1 X83.955 Y120.301 E19.03527
G1 X83.837 Y117.988 E19.15082
G1 X83.784 Y117.172 E19.19161
G1 X83.762 Y116.707 E19.21484
G1 X83.765 Y116.351 E19.2326
G1 X83.782 Y116.081 E19.2461
G1 X83.925 Y113.289 E19.38557
G1 X83.989 Y110.57 E19.52126
G1 X83.974 Y107.815 E19.65871
G1 X83.884 Y105.101 E19.79419
G1 X83.818 Y104.031 E19.84767
G1 X83.776 Y103.175 E19.89043
G1 X83.754 Y102.008 E19.94866
G1 X83.754 Y101.113 E19.99331
G1 X83.757 Y100.92 E20.00294
G1 X83.764 Y98.425 E20.12742
G1 X83.759 Y97.756 E20.1608
G1 X83.757 Y96.607 E20.21812
G1 X83.777 Y95.33 E20.28184
G1 X83.828 Y93.643 E20.36604
G1 X83.832 Y90.927 E20.50154
G1 X83.759 Y88.163 E20.63949
G1 X83.685 Y86.662 E20.71446
G1 X83.7 Y86.156 E20.73972
G1 X83.795 Y85.66 E20.76492
G1 X84.054 Y85.006 E20.80001
G1 X84.31 Y84.523 E20.82728
G1 X84.471 Y84.252 E20.84301
G1 X84.546 Y84.139 E20.84977
G1 X84.858 Y83.742 E20.87496
G1 F1500 E14.37496
G0 F7500 X86.681 Y85.492
G0 X87.374 Y86.011
;TYPE:SUPPORT
G1 F1500 E20.87496
G1 X87.667 Y85.751 E20.89451
G1 X87.904 Y85.655 E20.90727
G1 X88.17 Y85.574 E20.92114
G1 X88.564 Y85.727 E20.94222
G1 X88.591 Y85.776 E20.94502
G1 X89.027 Y86.035 E20.97032
G1 X90.111 Y86.035 E21.0244
G1 X95.011 Y86.016 E21.26886
G1 X96.823 Y86.011 E21.35926
G1 X103.509 Y86.005 E21.69283
G1 X107.455 Y86.076 E21.88973
G1 X107.759 Y86.406 E21.91211
G1 X110.353 Y86.393 E22.04153
G1 X112.972 Y86.392 E22.17219
G1 X114.672 Y86.417 E22.25701
G1 X118.492 Y86.411 E22.44759
G1 X118.828 Y86.075 E22.4713
G1 X120.939 Y86.067 E22.57662
G1 X121.269 Y85.736 E22.59994
G1 X123.106 Y85.732 E22.69159
G1 X124.478 Y85.74 E22.76004
G1 X126.904 Y85.706 E22.88108
G1 X128.711 Y85.697 E22.97124
G1 X131.205 Y85.706 E23.09566
G1 X131.404 Y85.733 E23.10568
G1 X131.737 Y85.827 E23.12294
G1 X131.938 Y85.924 E23.13408
G1 X132.325 Y86.132 E23.156
G1 X132.401 Y86.229 E23.16215
G1 X132.626 Y86.584 E23.18312
G1 X132.725 Y86.772 E23.19372
G1 X132.835 Y87.28 E23.21965
G1 X132.853 Y87.484 E23.22986
G1 X132.839 Y87.908 E23.25103
G1 X132.854 Y91.307 E23.42061
G1 X132.83 Y95.488 E23.6292
G1 X132.813 Y96.016 E23.65556
G1 X132.567 Y96.011 E23.66783
G1 X132.162 Y96.411 E23.69623
G1 X132.175 Y99.879 E23.86925
G1 X132.175 Y101.804 E23.96529
G1 X132.493 Y102.19 E23.99024
G1 X132.49 Y102.382 E23.99982
G1 X132.767 Y102.818 E24.02559
G1 X132.776 Y103.038 E24.03658
G1 X132.69 Y103.442 E24.05719
G1 X132.578 Y103.629 E24.06806
G1 X132.33 Y103.928 E24.08744
G1 X132.159 Y104.078 E24.09879
G1 X131.815 Y104.237 E24.1177
G1 X131.552 Y104.353 E24.13204
G1 X131.538 Y104.357 E24.13276
G1 X131.164 Y104.398 E24.15153
G1 X130.778 Y104.396 E24.17079
G1 X130.408 Y104.102 E24.19437
G1 X126.46 Y104.069 E24.39134
G1 X124.781 Y104.018 E24.47515
G1 X121.655 Y104.079 E24.63113
G1 X119.26 Y104.055 E24.75063
G1 X118.938 Y104.376 E24.77331
G1 X117.66 Y104.407 E24.83709
G1 X117.245 Y104.403 E24.85779
G1 X116.656 Y104.411 E24.88718
G1 X112.424 Y104.375 E25.09833
G1 X112.026 Y104.039 E25.12431
G1 X109.988 Y104.086 E25.22601
G1 X109.34 Y104.092 E25.25834
G1 X102.179 Y104.055 E25.61561
G1 X101.838 Y104.388 E25.63939
G1 X99.028 Y104.39 E25.77958
G1 X98.652 Y104.081 E25.80386
G1 X89.7 Y104.081 E26.25048
G1 X89.282 Y104.399 E26.27668
G1 X88.865 Y104.399 E26.29749
G1 X88.686 Y104.389 E26.30643
G1 X88.106 Y104.208 E26.33675
G1 X87.795 Y104.065 E26.35382
G1 X87.762 Y104.043 E26.3558
G1 X87.533 Y103.799 E26.3725
G1 X87.359 Y103.528 E26.38856
G1 X87.304 Y103.347 E26.398
G1 X87.155 Y102.847 E26.42403
G1 X87.153 Y100.39 E26.54661
G1 X87.177 Y99.643 E26.5839
G1 X87.159 Y97.956 E26.66807
G1 X87.158 Y96.107 E26.76031
G1 X87.48 Y95.724 E26.78528
G1 X87.474 Y90.808 E27.03054
G1 X87.486 Y87.933 E27.17397
G1 X87.18 Y87.54 E27.19882
G1 X87.18 Y86.512 E27.25011
G1 X87.118 Y86.449 E27.25452
G1 X87.328 Y86.073 E27.27601
G1 X87.374 Y86.011 E27.27986
G1 F1500 E20.77986
G0 F7500 X86.801 Y85.362
G0 X87.306 Y84.954
G0 X88.509 Y84.577
G0 X103.518 Y85.14
G0 X103.6 Y87.444
G1 F1500 E27.27986
G1 X103.6 Y102.656 E28.03879
G1 X104.244 Y103.3 E28.08423
G1 X129.656 Y103.3 E29.35204
G1 X130.3 Y102.656 E29.39747
G1 X130.3 Y87.444 E30.1564
G1 X129.656 Y86.8 E30.20184
G1 X104.244 Y86.8 E31.46965
G1 X103.6 Y87.444 E31.51509
G0 F7500 X103.519 Y87.48
G1 F1500 X101.106 Y86.086 E31.65412
G1 F1500 E25.15412
G0 F7500 X101.105 Y85.143
G0 X95.997 Y85.149
G0 X96 Y86.093
G1 F1500 E31.65412
G1 X96 Y104.001 E32.54755
G1 F1500 E26.04755
G0 F7500 X96 Y104.946
G0 X98.37 Y105.246
G0 X102.189 Y105.242
G0 X107.855 Y104.95
G0 X107.859 Y104.004
G1 F1500 E32.54755
G1 X108.941 Y103.379 E32.60989
G1 F1500 E26.10989
G0 F7500 X109.342 Y104.957
G0 X111.704 Y105.224
G0 X117.668 Y105.272
G0 X119.711 Y105.21
G0 X119.711 Y104.912
G0 X120 Y103.38
G1 F1500 E32.60989
G1 X120 Y103.982 E32.63993
G1 F1500 E26.13993
G0 F7500 X119.991 Y104.928
G0 X130.072 Y104.955
G0 X130.19 Y102.878
G1 F1500 E32.63993
G1 X132.129 Y103.997 E32.75162
G1 F1500 E26.25162
G0 F7500 X132.963 Y104.518
G0 X133.463 Y103.84
G0 X133.619 Y103.212
G0 X133.719 Y91.309
G0 X130.379 Y91.002
G1 F1500 E32.75162
G1 X132.765 Y89.624 E32.88908
G1 F1500 E26.38908
G0 F7500 X133.711 Y89.619
G0 X133.69 Y87.146
G0 X133.498 Y86.38
G0 X133.006 Y85.585
G0 X131.966 Y84.991
G0 X131.262 Y84.842
G0 X120.485 Y84.884
G0 X120.485 Y85.215
G0 X120 Y86.72
G1 F1500 E32.88908
G1 X120 Y86.15 E32.91752
G1 F1500 E26.41752
G0 F7500 X119.996 Y85.205
G0 X115.325 Y85.187
G0 X90.845 Y85.168
G0 X90.849 Y86.112
G1 F1500 E32.91752
G1 X87.564 Y88.008 E33.10675
G1 F1500 E26.60675
G0 F7500 X86.629 Y88.256
G0 X86.304 Y95.423
G0 X86.291 Y102.973
G0 X88.109 Y114.687
G0 X88.328 Y115.522
G1 F1500 E33.10675
G1 X88.706 Y115.744 E33.12862
G1 X89.382 Y115.748 E33.16234
G1 X89.39 Y115.881 E33.16899
G1 X89.047 Y115.881 E33.1861
G1 X88.972 Y115.886 E33.18985
G1 X88.639 Y115.929 E33.2066
G1 X88.567 Y115.953 E33.21039
G1 X88.227 Y116.143 E33.22982
G1 X87.988 Y116.254 E33.24297
G1 X87.916 Y116.312 E33.24758
G1 X87.682 Y116.601 E33.26613
G1 X87.646 Y116.667 E33.26988
G1 X87.447 Y117.286 E33.30232
G1 X87.437 Y117.352 E33.30565
G1 X87.445 Y117.855 E33.33075
G1 X87.464 Y118.388 E33.35736
G1 X87.45 Y119.473 E33.41149
